X:1
T:Prenez plaisir
T:Prenez plaisir
T:Anonymous
C:Anonymous
%%score [ 1 [ 2 3 ] 4 ]
L:1/8
Q:1/4=76
M:2/2
K:F
V:1 treble nm="Superius" snm="S"
V:2 treble-8 nm="Tenor 1" snm="T 1"
V:3 treble-8 nm="Tenor 2" snm="T 2"
V:4 bass nm="Bass" snm="B"
V:1
 z8 | d4 c2 d2 | AB cd e2 f2 | e2 d4 c2 | d4 z2 d2 | f2 f2 e2 d2- | d2 c3 B A2- | A2 G2 A2 c2- | %8
w: |Pre- nez plai-|sir, _ _ _ _ cueurs|lan- * gou-|reulx, pre-|nez plai- sir, cueurs|_ lan- * *||
 c2 B2 AFGA | B2 A3 G G2- | G2 F2 G4 | z2 d2 f3 f | e2 d2 z2 d2 | cABB A2 d2- | d2 c2 d4 | z8 | %16
w: ||* gou- reulx,|al- lons en-|sem- ble, soy-|ons joy- eulx et gay, et|_ _ gay,||
 z4 z2 e2 | f3 f e2 dd | cABB AF f2- | fe d4 c2 | d4 z2 G2 | d3 d c3 d | e2 f2 e2 d2- | %23
w: al-|lons en- sem- ble, soy-|ons joy- eulx et gay, soy- ons|_ joy- eulx et|gay, où|de cou- tu- me|vont loy- aulx- a-|
 dc B2 A2 G2 | A4 z2 D2 | G3 G F3 G | A2 B2 AF B2- | B2 A2 B4 | z2 d2 d2 d2 | cBAG F2 f2 | %30
w: * * * * mou-|reulx, où|de cou- tu- me|vont loy- aulx _ a-|* mou- reulx,|sur la ver-|du- * * * re du|
 f2 e3 d d2- | d2 c2 d4 |: z4 d4 | d2 d2 cBAG | F2 f2 f2 f2 | edcB A2 d2 | dcBA G2 c2- | %37
w: jo- ly _ moys|_ de may,|sur|la ver- du- * * *|re, sur la ver-|du- * * * re du|jo- * * * ly moys|
 cA B3 AGA | B2 A3 G G2- |"^#" G2 F2 G4- :| G8- | G8 |] %42
w: _ _ _ _ _ _||* de may.|_||
V:2
 g4 f2 g2 | defg a2 b2 | a3 f g2 f2 | gfed e2 e2 | d2 b2 a2 g2 | fg a3 f g2 | a8 | d4 e2 f2- | %8
w: Pre- nez plai-|sir, _ _ _ _ cueurs|lan- * * *|* * * * * gou-|reulx, pre- nez plai-|sir, _ _ _ cueurs|lan-||
 fe d4 c2 | B2 c2 _e4 | d3 c BG b2 | a2 g4 f2 | g2 g2 b3 b | a2 g2 z2 g2 | fdee d4 | z4 a4 | %16
w: |||gou- reulx, al-|lons en- sem- *|* ble, soy-|ons joy- eulx et gay,|al-|
 b3 b a2 gg | fe a4 g2 | a2 de fg a2- | a2 g2 a4 | z2 d2 g3 g | f2 g2 a4 | g2 f2 g4 | %23
w: lons en- sem- ble, soy-|ons joy- eulx et|gay, et _ _ _ _|_ _ gay,|où de cou-|tu- me vont|loy- aulx a-|
 a2 gf e2 d2- | d2 cB A2 B2 | G3 A Bc d2 | c2 f4 e2 | f8 | z2 d2 defg | a6 f2- | f2 g3 fed | %31
w: mou- * * eulx, où|_ de cou- tu- me|vont _ _ _ loy-|aulx a- mou-|reulx,|sur la _ _ _|_ ver-|* du- * * *|
 e4 d2 g2 |: g2 g2 f3 e | dc d2 e4 | z2 f2 f2 f2 | g2 a3 gfe | d2 g3 fed | c2 BA G2 g2- | %38
w: * re du|jo- ly moys _|_ _ de may,|sur la ver-|du- * * * *|re du _ _ _|_ _ _ _ jo-|
"^b" g2 f2 d2 e2 | d3 c BG g2 :|"^b" g2 f2 d2 e2 |"^-natural" d4 B4 |] %42
w: * ly moys de|may, _ _ _ du|jo- ly moys _|de may.|
V:3
 z8 | z8 | z4 z2 d2 | c2 d2 A4 | z8 | d4 c2 d2 | ABcd e2 f2- | fe d4 c2 | d4 z2 G2 | G2 A2 B2 c2 | %10
w: ||Pre-|nez plai- sir,||pre- nez plai-|sir _ _ _ _ cueurs|_ _ lan- gou-|reulx, cueurs|lan- * * *|
 A4 B2 d2- | dc B2 A4 | B8 | z8 | z4 d2 f2- | ff e2 d2 c2 | BA d4 c2 | d4 z2 d2 | ff g2 c2 c2 | %19
w: |* * * gou-|reulx,||al- lons|_ en- sem- ble, soy-|ons _ _ joy-|eulx, al-|lons en- sem- ble, soy-|
 d2 d2 f2 e2 | d4 z2 d2 | d2 d2 f4 | e2 d2 z2 G2 | d3 d c2 d2 | e2 f3 e d2- | d2 c2 d3 c/B/ | %26
w: ons joy- eulx et|gay soy-|ons joy- eulx|et gay, où|de cou- tu- me|vont loy- aulx a-|* mou- * * *|
 A2 d2 c2 B2 | c4 Bcde | f2 g2 f2 d2 | e4 d2 d2 | B2 G2 B4 | A4 z4 |: z2 e2 f2 d2 | f2 g2 a2 e2 | %34
w: |||* reulx, sur|la ver- du-|re,|sur la ver-|du- re du jo-|
 fedc Bcdc/d/ | e2 f3 edc | B3 A/B/ cd e2- | ed d4 c2 | d2 A2 B2 c2 | A2 A2 G4- :| G8- | G8 |] %42
w: |ly _ _ _ _|_ _ _ _ _ moys|_ _ _ de|may, du jo- ly|moys de may.|_||
V:4
 z8 | z8 | z8 | z8 | G,4 F,2 G,2 | D,E,F,G, A,2 B,2 | A,6 F,2 | B,4 A,4 | D,2 G,2 F,D,E,F, | %9
w: ||||Pre- nez plai-|sir, _ _ _ _ cueurs|lan- *|||
 G,2 F,2 _E,2 C,2 | D,4 G,4 | F,2 G,2 D,4 | G,8 | z8 | A,4 B,3 B, | A,2 G,2 F,4 | G,3 G, F,2 E,2 | %17
w: ||* * gou-|reulx,||al- lons en-|sem- ble, soy-|ons joy- eulx et|
 D,2 D2 CA, B,2 | A,2 G,2 A,2 F,2 | B,4 A,4 | D,2 G,2 G,2 G,2 | B,2 B,2 A,4 | z2 D,2 G,3 G, | %23
w: gay, al- lons en- sem-|ble, soy- ons joy-|eulx et|gay, soy- ons joy-|eulx et gay,|où de cou-|
 F,2 G,2 A,2 B,2 | A,4 F,2 G,2 | _E,4 D,3 E, | F,2 B,,2 F,2 G,2 | F,4 B,,2 D2 | B,2 G,2 B,4 | %29
w: tu- me vont loy-|aulx a- mou-|||* reulx, sur|la ver- du-|
 A,4 z4 | z8 | z2 A,2 B,2 G,2 |: B,2 C2 D3 C | B,A, B,2 A,4 | z2 D2 D2 D2 | CB,A,G, F,2 B,2- | %36
w: ra,||sur la ver-|du- * * *|* * * re,|sur la ver-|du- * * * re du|
 B,A,G,F, E,D, C,2 | F,2 G,2 _E,2 E,2 | D,2 F,2 G,2 C,2 | D,2 D,2 G,4- :| G,8- | G,8 |] %42
w: _ _ _ _ _ _ _|jo- ly moys de|may, du jo- ly|moys de may.|||

